!!!!SEGMENT: pl-wtm--r-704-m--021_moniuszko-stanislaw--widma-zakonczenie.krn
!!!cenid: 18xx:3076
!!!COM: Moniuszko, Stanisław
!!!COM-rismid: pe30008351
!!!CDT: 1819/05/05-1872/06/04
!!!CNT: Polish
!!!GTL: Widma
!!!OTL: Zakończenie
!!!OMV: 021
!!!PDT: 1852
!!!AGN: Secular
!!!SMS-siglum: PL-Wtm
!!!SMS-shelfmark: R 704/M
!!!SMS-shelfwork: G
!!!SMS-variant:
!!!SMS-altvar:
!!!NIFC-rismid: 1001093778
!!!URL-scan: http://repozytorium.nifc.pl/skany/pl-wtm-nut--r704m
!!!ONB-nifc: UWAGA: skany 0076-0078. Nie wpisywać tekstu rosyjskiego i samodzielnych dialogów poza krótkimi didaskaliami.
**kern	**kern	**dynam	**kern	**dynam	**kern	**text	**text	**dynam	**kern	**text	**dynam	**kern	**text	**text	**dynam
*part6	*part5	*part5	*part4	*part4	*part3	*part3	*part3	*part3	*part2	*part2	*part2	*part1	*part1	*part1	*part1
*staff6	*staff5	*	*staff4	*	*staff3	*staff3	*staff3	*	*staff2	*staff2	*	*staff1	*staff1	*staff1	*
*Iempty	*Iempty	*	*Iempty	*	*Iempty	*	*	*	*Iempty	*	*	*Iempty	*	*	*
*I"[Forte-Piano.]	*I"[Forte-Piano.]	*	*I"	*	*I"	*	*	*	*I"	*	*	*I"[Chór!]	*	*	*
*I'	*I'	*	*I'	*	*I'	*	*	*	*I'	*	*	*I'	*	*	*
*clefF4	*clefG2	*	*clefF4	*	*clefG2	*	*	*	*clefG2	*	*	*clefG2	*	*	*
*k[b-]	*k[b-]	*	*k[b-]	*	*k[b-]	*	*	*	*k[b-]	*	*	*k[b-]	*	*	*
*D:	*D:	*	*D:	*	*D:	*	*	*	*D:	*	*	*D:	*	*	*
*M4/4	*M4/4	*	*M4/4	*	*M4/4	*	*	*	*M4/4	*	*	*M4/4	*	*	*
*met(c)	*met(c)	*	*met(c)	*	*met(c)	*	*	*	*met(c)	*	*	*met(c)	*	*	*
*	*	*	*	*	*ITrd8c12	*	*	*	*	*	*	*	*	*	*
=1	=1	=1	=1	=1	=1	=1	=1	=1	=1	=1	=1	=1	=1	=1	=1
!!LO:TX:t=P:problem:tekst włoski wpisany czerwonym atramentem
!	!LO:TX:a:t=Cl&colon; Fag&colon; Cor.\nQuatuor	!	!	!	!	!	!	!	!	!	!	!LO:TX:t=P:problem:opis na marginesie w pionie	!	!	!
!	!	!LO:DY:rj	!	!	!	!	!	!	!	!	!	!LO:TX:t=Zakończenie.	!	!	!
2GG#X\ 2BBn	2F</ 2d	pp	1ryy	.	1ryy	.	.	.	1ryy	.	.	1ryy	.	.	.
[2GG#\ 2BB	2F</ 2d	.	.	.	.	.	.	.	.	.	.	.	.	.	.
=2	=2	=2	=2	=2	=2	=2	=2	=2	=2	=2	=2	=2	=2	=2	=2
*^	*	*	*	*	*	*	*	*	*	*	*	*	*	*	*
!LO:SIC:n=2:v:s=2BBn	!	!	!	!	!	!	!	!	!	!	!	!	!	!	!	!
2GG#X/] 2BB- 2F	2ryy	4.d/	.	1ryy	.	1ryy	.	.	.	1ryy	.	.	1ryy	.	.	.
.	.	8c/	.	.	.	.	.	.	.	.	.	.	.	.	.	.
2r	4ryy	4Bn/	.	.	.	.	.	.	.	.	.	.	.	.	.	.
.	(<4D/	4ryy	.	.	.	.	.	.	.	.	.	.	.	.	.	.
=3	=3	=3	=3	=3	=3	=3	=3	=3	=3	=3	=3	=3	=3	=3	=3	=3
2F/	1GG) 1Bn	2d/	.	1ryy	.	1ryy	.	.	.	1ryy	.	.	1ryy	.	.	.
4..E/	.	4..e/	.	.	.	.	.	.	.	.	.	.	.	.	.	.
16D/	.	16f/	.	.	.	.	.	.	.	.	.	.	.	.	.	.
=4	=4	=4	=4	=4	=4	=4	=4	=4	=4	=4	=4	=4	=4	=4	=4	=4
1D; 1Bn	1GG;	1f;	.	1ryy	.	1ryy	.	.	.	1ryy	.	.	1ryy	.	.	.
*v	*v	*	*	*	*	*	*	*	*	*	*	*	*	*	*	*
!!pagebreak:original
==5	==5	==5	==5	==5	==5	==5	==5	==5	==5	==5	==5	==5	==5	==5	==5
*k[b-]	*k[b-]	*	*k[b-]	*	*k[b-]	*	*	*	*k[b-]	*	*	*k[b-]	*	*	*
*M4/4	*M4/4	*	*M4/4	*	*M4/4	*	*	*	*M4/4	*	*	*M4/4	*	*	*
*met(c)	*met(c)	*	*met(c)	*	*met(c)	*	*	*	*met(c)	*	*	*met(c)	*	*	*
*	*tremolo	*	*	*	*	*	*	*	*	*	*	*	*	*	*
!	!LO:TX:a:t=Quatuor	!LO:DY:rj	!	!	!	!	!	!LO:DY:a	!	!	!	!LO:TX:b:t=Lento	!	!	!
1GG	32Bn/LLL 32d 32f	fp	2r	.	2r	.	.	.	1r	.	.	1r	.	.	.
.	32B/ 32d 32f	.	.	.	.	.	.	.	.	.	.	.	.	.	.
.	32B/ 32d 32f	.	.	.	.	.	.	.	.	.	.	.	.	.	.
.	32B/ 32d 32f	.	.	.	.	.	.	.	.	.	.	.	.	.	.
.	32B/ 32d 32f	.	.	.	.	.	.	.	.	.	.	.	.	.	.
.	32B/ 32d 32f	.	.	.	.	.	.	.	.	.	.	.	.	.	.
.	32B/ 32d 32f	.	.	.	.	.	.	.	.	.	.	.	.	.	.
.	32B/ 32d 32f	.	.	.	.	.	.	.	.	.	.	.	.	.	.
.	32B/ 32d 32f	.	.	.	.	.	.	.	.	.	.	.	.	.	.
.	32B/ 32d 32f	.	.	.	.	.	.	.	.	.	.	.	.	.	.
.	32B/ 32d 32f	.	.	.	.	.	.	.	.	.	.	.	.	.	.
.	32B/ 32d 32f	.	.	.	.	.	.	.	.	.	.	.	.	.	.
.	32B/ 32d 32f	.	.	.	.	.	.	.	.	.	.	.	.	.	.
.	32B/ 32d 32f	.	.	.	.	.	.	.	.	.	.	.	.	.	.
.	32B/ 32d 32f	.	.	.	.	.	.	.	.	.	.	.	.	.	.
.	32B/ 32d 32f	.	.	.	.	.	.	.	.	.	.	.	.	.	.
.	32B/ 32d 32f	.	4r	.	4r	.	.	.	.	.	.	.	.	.	.
.	32B/ 32d 32f	.	.	.	.	.	.	.	.	.	.	.	.	.	.
.	32B/ 32d 32f	.	.	.	.	.	.	.	.	.	.	.	.	.	.
.	32B/ 32d 32f	.	.	.	.	.	.	.	.	.	.	.	.	.	.
.	32B/ 32d 32f	.	.	.	.	.	.	.	.	.	.	.	.	.	.
.	32B/ 32d 32f	.	.	.	.	.	.	.	.	.	.	.	.	.	.
.	32B/ 32d 32f	.	.	.	.	.	.	.	.	.	.	.	.	.	.
.	32B/ 32d 32f	.	.	.	.	.	.	.	.	.	.	.	.	.	.
!	!LO:TX:a:t=Fag.	!	!	!LO:DY:a:rj	!	!	!	!LO:DY:rj	!	!	!	!	!	!	!
.	32B/ 32d 32f	.	8.D\	pp	8.D/	Co	Che	pp	.	.	.	.	.	.	.
.	32B/ 32d 32f	.	.	.	.	.	.	.	.	.	.	.	.	.	.
.	32B/ 32d 32f	.	.	.	.	.	.	.	.	.	.	.	.	.	.
.	32B/ 32d 32f	.	.	.	.	.	.	.	.	.	.	.	.	.	.
.	32B/ 32d 32f	.	.	.	.	.	.	.	.	.	.	.	.	.	.
.	32B/ 32d 32f	.	.	.	.	.	.	.	.	.	.	.	.	.	.
.	32B/ 32d 32f	.	16E\	.	16E/	to	Sa-	.	.	.	.	.	.	.	.
.	32B/JJJ 32d 32f	.	.	.	.	.	.	.	.	.	.	.	.	.	.
=6	=6	=6	=6	=6	=6	=6	=6	=6	=6	=6	=6	=6	=6	=6	=6
2GG#X/	32Bn/LLL 32d 32f	.	2F\	.	2F/	bę-	-ră	.	2r	.	.	2r	.	.	.
.	32B/ 32d 32f	.	.	.	.	.	.	.	.	.	.	.	.	.	.
.	32B/ 32d 32f	.	.	.	.	.	.	.	.	.	.	.	.	.	.
.	32B/ 32d 32f	.	.	.	.	.	.	.	.	.	.	.	.	.	.
.	32B/ 32d 32f	.	.	.	.	.	.	.	.	.	.	.	.	.	.
.	32B/ 32d 32f	.	.	.	.	.	.	.	.	.	.	.	.	.	.
.	32B/ 32d 32f	.	.	.	.	.	.	.	.	.	.	.	.	.	.
.	32B/ 32d 32f	.	.	.	.	.	.	.	.	.	.	.	.	.	.
.	32B/ 32d 32f	.	.	.	.	.	.	.	.	.	.	.	.	.	.
.	32B/ 32d 32f	.	.	.	.	.	.	.	.	.	.	.	.	.	.
.	32B/ 32d 32f	.	.	.	.	.	.	.	.	.	.	.	.	.	.
.	32B/ 32d 32f	.	.	.	.	.	.	.	.	.	.	.	.	.	.
.	32B/ 32d 32f	.	.	.	.	.	.	.	.	.	.	.	.	.	.
.	32B/ 32d 32f	.	.	.	.	.	.	.	.	.	.	.	.	.	.
.	32B/ 32d 32f	.	.	.	.	.	.	.	.	.	.	.	.	.	.
.	32B/JJJ 32d 32f	.	.	.	.	.	.	.	.	.	.	.	.	.	.
2AA/	32A/LLL 32d 32f	.	8F\	.	8F/	-dzie	mai?..	.	4r	.	.	4r	.	.	.
.	32A/ 32d 32f	.	.	.	.	.	.	.	.	.	.	.	.	.	.
.	32A/ 32d 32f	.	.	.	.	.	.	.	.	.	.	.	.	.	.
.	32A/ 32d 32f	.	.	.	.	.	.	.	.	.	.	.	.	.	.
.	32A/ 32d 32f	.	8r	.	8r	.	.	.	.	.	.	.	.	.	.
.	32A/ 32d 32f	.	.	.	.	.	.	.	.	.	.	.	.	.	.
.	32A/ 32d 32f	.	.	.	.	.	.	.	.	.	.	.	.	.	.
.	32A/ 32d 32f	.	.	.	.	.	.	.	.	.	.	.	.	.	.
!	!LO:TX:a:t=Clar	!	!	!	!	!	!	!	!	!	!LO:DY:a:rj	!	!	!	!LO:DY:a:rj
.	32A/ 32d 32f	.	4r	.	4r	.	.	.	8.d/	.	pp	8.d/	Co	Che	pp
.	32A/ 32d 32f	.	.	.	.	.	.	.	.	.	.	.	.	.	.
.	32A/ 32d 32f	.	.	.	.	.	.	.	.	.	.	.	.	.	.
.	32A/ 32d 32f	.	.	.	.	.	.	.	.	.	.	.	.	.	.
.	32A/ 32d 32f	.	.	.	.	.	.	.	.	.	.	.	.	.	.
.	32A/ 32d 32f	.	.	.	.	.	.	.	.	.	.	.	.	.	.
.	32A/ 32d 32f	.	.	.	.	.	.	.	16e/	.	.	16e/	to	sa-	.
.	32A/JJJ 32d 32f	.	.	.	.	.	.	.	.	.	.	.	.	.	.
=7	=7	=7	=7	=7	=7	=7	=7	=7	=7	=7	=7	=7	=7	=7	=7
2BB-/	32A-X/LLL 32d 32f	.	2r	.	2r	.	.	.	2f/	.	.	2f/	bę-	-rà...	.
.	32A-/ 32d 32f	.	.	.	.	.	.	.	.	.	.	.	.	.	.
.	32A-/ 32d 32f	.	.	.	.	.	.	.	.	.	.	.	.	.	.
.	32A-/ 32d 32f	.	.	.	.	.	.	.	.	.	.	.	.	.	.
.	32A-/ 32d 32f	.	.	.	.	.	.	.	.	.	.	.	.	.	.
.	32A-/ 32d 32f	.	.	.	.	.	.	.	.	.	.	.	.	.	.
.	32A-/ 32d 32f	.	.	.	.	.	.	.	.	.	.	.	.	.	.
.	32A-/ 32d 32f	.	.	.	.	.	.	.	.	.	.	.	.	.	.
.	32A-/ 32d 32f	.	.	.	.	.	.	.	.	.	.	.	.	.	.
.	32A-/ 32d 32f	.	.	.	.	.	.	.	.	.	.	.	.	.	.
.	32A-/ 32d 32f	.	.	.	.	.	.	.	.	.	.	.	.	.	.
.	32A-/ 32d 32f	.	.	.	.	.	.	.	.	.	.	.	.	.	.
.	32A-/ 32d 32f	.	.	.	.	.	.	.	.	.	.	.	.	.	.
.	32A-/ 32d 32f	.	.	.	.	.	.	.	.	.	.	.	.	.	.
.	32A-/ 32d 32f	.	.	.	.	.	.	.	.	.	.	.	.	.	.
.	32A-/JJJ 32d 32f	.	.	.	.	.	.	.	.	.	.	.	.	.	.
2BBn/	32G/LLL 32d 32g	.	4r	.	4r	.	.	.	8f/	.	.	8f/	-dzie	mai?..	.
.	32G/ 32d 32g	.	.	.	.	.	.	.	.	.	.	.	.	.	.
.	32G/ 32d 32g	.	.	.	.	.	.	.	.	.	.	.	.	.	.
.	32G/ 32d 32g	.	.	.	.	.	.	.	.	.	.	.	.	.	.
.	32G/ 32d 32g	.	.	.	.	.	.	.	8r	.	.	8r	.	.	.
.	32G/ 32d 32g	.	.	.	.	.	.	.	.	.	.	.	.	.	.
.	32G/ 32d 32g	.	.	.	.	.	.	.	.	.	.	.	.	.	.
.	32G/ 32d 32g	.	.	.	.	.	.	.	.	.	.	.	.	.	.
.	32G/ 32d 32g	.	8.G\	.	8.G/	Gdzie	Pas-	.	4r	.	.	4r	.	.	.
.	32G/ 32d 32g	.	.	.	.	.	.	.	.	.	.	.	.	.	.
.	32G/ 32d 32g	.	.	.	.	.	.	.	.	.	.	.	.	.	.
.	32G/ 32d 32g	.	.	.	.	.	.	.	.	.	.	.	.	.	.
.	32G/ 32d 32g	.	.	.	.	.	.	.	.	.	.	.	.	.	.
.	32G/ 32d 32g	.	.	.	.	.	.	.	.	.	.	.	.	.	.
.	32G/ 32d 32g	.	16F\	.	16F/	my	-so a	.	.	.	.	.	.	.	.
.	32G/JJJ 32d 32g	.	.	.	.	.	.	.	.	.	.	.	.	.	.
=8	=8	=8	=8	=8	=8	=8	=8	=8	=8	=8	=8	=8	=8	=8	=8
2C/	32G/LLL 32e	.	2E\	.	2E/	z nią	pas-	.	2r	.	.	2r	.	.	.
.	32G/ 32e	.	.	.	.	.	.	.	.	.	.	.	.	.	.
.	32G/ 32e	.	.	.	.	.	.	.	.	.	.	.	.	.	.
.	32G/ 32e	.	.	.	.	.	.	.	.	.	.	.	.	.	.
.	32G/ 32e	.	.	.	.	.	.	.	.	.	.	.	.	.	.
.	32G/ 32e	.	.	.	.	.	.	.	.	.	.	.	.	.	.
.	32G/ 32e	.	.	.	.	.	.	.	.	.	.	.	.	.	.
.	32G/ 32e	.	.	.	.	.	.	.	.	.	.	.	.	.	.
.	32G/ 32e	.	.	.	.	.	.	.	.	.	.	.	.	.	.
.	32G/ 32e	.	.	.	.	.	.	.	.	.	.	.	.	.	.
.	32G/ 32e	.	.	.	.	.	.	.	.	.	.	.	.	.	.
.	32G/ 32e	.	.	.	.	.	.	.	.	.	.	.	.	.	.
.	32G/ 32e	.	.	.	.	.	.	.	.	.	.	.	.	.	.
.	32G/ 32e	.	.	.	.	.	.	.	.	.	.	.	.	.	.
.	32G/ 32e	.	.	.	.	.	.	.	.	.	.	.	.	.	.
.	32G/JJJ 32e	.	.	.	.	.	.	.	.	.	.	.	.	.	.
2C#X/	32B-/LLL 32e 32g	.	4E\	.	4E/	on	-so	.	4r	.	.	4r	.	.	.
.	32B-/ 32e 32g	.	.	.	.	.	.	.	.	.	.	.	.	.	.
.	32B-/ 32e 32g	.	.	.	.	.	.	.	.	.	.	.	.	.	.
.	32B-/ 32e 32g	.	.	.	.	.	.	.	.	.	.	.	.	.	.
.	32B-/ 32e 32g	.	.	.	.	.	.	.	.	.	.	.	.	.	.
.	32B-/ 32e 32g	.	.	.	.	.	.	.	.	.	.	.	.	.	.
.	32B-/ 32e 32g	.	.	.	.	.	.	.	.	.	.	.	.	.	.
.	32B-/ 32e 32g	.	.	.	.	.	.	.	.	.	.	.	.	.	.
.	32B-/ 32e 32g	.	8.G\	.	8.G/	za	ei	.	8.g/	.	.	8.g/	za	Ei	.
.	32B-/ 32e 32g	.	.	.	.	.	.	.	.	.	.	.	.	.	.
.	32B-/ 32e 32g	.	.	.	.	.	.	.	.	.	.	.	.	.	.
.	32B-/ 32e 32g	.	.	.	.	.	.	.	.	.	.	.	.	.	.
.	32B-/ 32e 32g	.	.	.	.	.	.	.	.	.	.	.	.	.	.
.	32B-/ 32e 32g	.	.	.	.	.	.	.	.	.	.	.	.	.	.
.	32B-/ 32e 32g	.	16F\	.	16F/	nią	la	.	16f/	.	.	16f/	nią	la	.
.	32B-/JJJ 32e 32g	.	.	.	.	.	.	.	.	.	.	.	.	.	.
!!linebreak:original
=9	=9	=9	=9	=9	=9	=9	=9	=9	=9	=9	=9	=9	=9	=9	=9
2D\	32Bn/LLL 32f 32g	.	2F\	.	2F/	wszę-	se-	.	2f/	.	.	2f/	wszę-	se-	.
.	32B/ 32f 32g	.	.	.	.	.	.	.	.	.	.	.	.	.	.
.	32B/ 32f 32g	.	.	.	.	.	.	.	.	.	.	.	.	.	.
.	32B/ 32f 32g	.	.	.	.	.	.	.	.	.	.	.	.	.	.
.	32B/ 32f 32g	.	.	.	.	.	.	.	.	.	.	.	.	.	.
.	32B/ 32f 32g	.	.	.	.	.	.	.	.	.	.	.	.	.	.
.	32B/ 32f 32g	.	.	.	.	.	.	.	.	.	.	.	.	.	.
.	32B/ 32f 32g	.	.	.	.	.	.	.	.	.	.	.	.	.	.
.	32B/ 32f 32g	.	.	.	.	.	.	.	.	.	.	.	.	.	.
.	32B/ 32f 32g	.	.	.	.	.	.	.	.	.	.	.	.	.	.
.	32B/ 32f 32g	.	.	.	.	.	.	.	.	.	.	.	.	.	.
.	32B/ 32f 32g	.	.	.	.	.	.	.	.	.	.	.	.	.	.
.	32B/ 32f 32g	.	.	.	.	.	.	.	.	.	.	.	.	.	.
.	32B/ 32f 32g	.	.	.	.	.	.	.	.	.	.	.	.	.	.
.	32B/ 32f 32g	.	.	.	.	.	.	.	.	.	.	.	.	.	.
.	32B/JJJ 32f 32g	.	.	.	.	.	.	.	.	.	.	.	.	.	.
2E\	32c/LLL 32g	.	8E\	.	8E/	-dzie	-que.	.	8e/	.	.	8e/	-dzie..	-que.	.
.	32c/ 32g	.	.	.	.	.	.	.	.	.	.	.	.	.	.
.	32c/ 32g	.	.	.	.	.	.	.	.	.	.	.	.	.	.
.	32c/ 32g	.	.	.	.	.	.	.	.	.	.	.	.	.	.
.	32c/ 32g	.	8r	.	8r	.	.	.	8r	.	.	8r	.	.	.
.	32c/ 32g	.	.	.	.	.	.	.	.	.	.	.	.	.	.
.	32c/ 32g	.	.	.	.	.	.	.	.	.	.	.	.	.	.
.	32c/ 32g	.	.	.	.	.	.	.	.	.	.	.	.	.	.
.	32c/ 32g	.	8.F\	.	8.F/	Co	Che av-	.	4r	.	.	4r	.	.	.
.	32c/ 32g	.	.	.	.	.	.	.	.	.	.	.	.	.	.
.	32c/ 32g	.	.	.	.	.	.	.	.	.	.	.	.	.	.
.	32c/ 32g	.	.	.	.	.	.	.	.	.	.	.	.	.	.
.	32c/ 32g	.	.	.	.	.	.	.	.	.	.	.	.	.	.
.	32c/ 32g	.	.	.	.	.	.	.	.	.	.	.	.	.	.
.	32c/ 32g	.	16G\	.	16G/	to	-ver-	.	.	.	.	.	.	.	.
.	32c/JJJ 32g	.	.	.	.	.	.	.	.	.	.	.	.	.	.
=10	=10	=10	=10	=10	=10	=10	=10	=10	=10	=10	=10	=10	=10	=10	=10
2F\	32A/LLL 32f 32a	.	2A\	.	2A/	bę-	-ră	.	2r	.	.	2r	.	.	.
.	32A/ 32f 32a	.	.	.	.	.	.	.	.	.	.	.	.	.	.
.	32A/ 32f 32a	.	.	.	.	.	.	.	.	.	.	.	.	.	.
.	32A/ 32f 32a	.	.	.	.	.	.	.	.	.	.	.	.	.	.
.	32A/ 32f 32a	.	.	.	.	.	.	.	.	.	.	.	.	.	.
.	32A/ 32f 32a	.	.	.	.	.	.	.	.	.	.	.	.	.	.
.	32A/ 32f 32a	.	.	.	.	.	.	.	.	.	.	.	.	.	.
.	32A/ 32f 32a	.	.	.	.	.	.	.	.	.	.	.	.	.	.
.	32A/ 32f 32a	.	.	.	.	.	.	.	.	.	.	.	.	.	.
.	32A/ 32f 32a	.	.	.	.	.	.	.	.	.	.	.	.	.	.
.	32A/ 32f 32a	.	.	.	.	.	.	.	.	.	.	.	.	.	.
.	32A/ 32f 32a	.	.	.	.	.	.	.	.	.	.	.	.	.	.
.	32A/ 32f 32a	.	.	.	.	.	.	.	.	.	.	.	.	.	.
.	32A/ 32f 32a	.	.	.	.	.	.	.	.	.	.	.	.	.	.
.	32A/ 32f 32a	.	.	.	.	.	.	.	.	.	.	.	.	.	.
.	32A/JJJ 32f 32a	.	.	.	.	.	.	.	.	.	.	.	.	.	.
2G\	32B-/LLL 32f 32a	.	8A\	.	8A/	-dzie	-mai?..	.	4r	.	.	4r	.	.	.
.	32B-/ 32f 32a	.	.	.	.	.	.	.	.	.	.	.	.	.	.
.	32B-/ 32f 32a	.	.	.	.	.	.	.	.	.	.	.	.	.	.
.	32B-/ 32f 32a	.	.	.	.	.	.	.	.	.	.	.	.	.	.
.	32B-/ 32f 32a	.	8r	.	8r	.	.	.	.	.	.	.	.	.	.
.	32B-/ 32f 32a	.	.	.	.	.	.	.	.	.	.	.	.	.	.
.	32B-/ 32f 32a	.	.	.	.	.	.	.	.	.	.	.	.	.	.
.	32B-/ 32f 32a	.	.	.	.	.	.	.	.	.	.	.	.	.	.
.	32B-/ 32f 32a	.	4r	.	4r	.	.	.	8.f/	.	.	8.f/	Co	Che av-	.
.	32B-/ 32f 32a	.	.	.	.	.	.	.	.	.	.	.	.	.	.
.	32B-/ 32f 32a	.	.	.	.	.	.	.	.	.	.	.	.	.	.
.	32B-/ 32f 32a	.	.	.	.	.	.	.	.	.	.	.	.	.	.
.	32B-/ 32f 32a	.	.	.	.	.	.	.	.	.	.	.	.	.	.
.	32B-/ 32f 32a	.	.	.	.	.	.	.	.	.	.	.	.	.	.
.	32B-/ 32f 32a	.	.	.	.	.	.	.	16g/	.	.	16g/	to	-ver-	.
.	32B-/JJJ 32f 32a	.	.	.	.	.	.	.	.	.	.	.	.	.	.
=11	=11	=11	=11	=11	=11	=11	=11	=11	=11	=11	=11	=11	=11	=11	=11
2A\	32c/LLL 32f 32a	.	2r	.	2r	.	.	.	2a/	.	.	2a/	bę-	-ră	.
.	32c/ 32f 32a	.	.	.	.	.	.	.	.	.	.	.	.	.	.
.	32c/ 32f 32a	.	.	.	.	.	.	.	.	.	.	.	.	.	.
.	32c/ 32f 32a	.	.	.	.	.	.	.	.	.	.	.	.	.	.
.	32c/ 32f 32a	.	.	.	.	.	.	.	.	.	.	.	.	.	.
.	32c/ 32f 32a	.	.	.	.	.	.	.	.	.	.	.	.	.	.
.	32c/ 32f 32a	.	.	.	.	.	.	.	.	.	.	.	.	.	.
.	32c/ 32f 32a	.	.	.	.	.	.	.	.	.	.	.	.	.	.
.	32c/ 32f 32a	.	.	.	.	.	.	.	.	.	.	.	.	.	.
.	32c/ 32f 32a	.	.	.	.	.	.	.	.	.	.	.	.	.	.
.	32c/ 32f 32a	.	.	.	.	.	.	.	.	.	.	.	.	.	.
.	32c/ 32f 32a	.	.	.	.	.	.	.	.	.	.	.	.	.	.
.	32c/ 32f 32a	.	.	.	.	.	.	.	.	.	.	.	.	.	.
.	32c/ 32f 32a	.	.	.	.	.	.	.	.	.	.	.	.	.	.
.	32c/ 32f 32a	.	.	.	.	.	.	.	.	.	.	.	.	.	.
.	32c/JJJ 32f 32a	.	.	.	.	.	.	.	.	.	.	.	.	.	.
2B-\	32d/LLL 32g	.	4r	.	4r	.	.	.	8a/	.	.	8a/	-dzie	mai?..	.
.	32d/ 32g	.	.	.	.	.	.	.	.	.	.	.	.	.	.
.	32d/ 32g	.	.	.	.	.	.	.	.	.	.	.	.	.	.
.	32d/ 32g	.	.	.	.	.	.	.	.	.	.	.	.	.	.
.	32d/ 32g	.	.	.	.	.	.	.	8r	.	.	8r	.	.	.
.	32d/ 32g	.	.	.	.	.	.	.	.	.	.	.	.	.	.
.	32d/ 32g	.	.	.	.	.	.	.	.	.	.	.	.	.	.
.	32d/ 32g	.	.	.	.	.	.	.	.	.	.	.	.	.	.
.	32d/ 32g	.	8.B-\	.	8.B-/	Gdzie	Pas-	.	4r	.	.	4r	.	.	.
.	32d/ 32g	.	.	.	.	.	.	.	.	.	.	.	.	.	.
.	32d/ 32g	.	.	.	.	.	.	.	.	.	.	.	.	.	.
.	32d/ 32g	.	.	.	.	.	.	.	.	.	.	.	.	.	.
.	32d/ 32g	.	.	.	.	.	.	.	.	.	.	.	.	.	.
.	32d/ 32g	.	.	.	.	.	.	.	.	.	.	.	.	.	.
.	32d/ 32g	.	16A\	.	16A/	my	-so a	.	.	.	.	.	.	.	.
.	32d/JJJ 32g	.	.	.	.	.	.	.	.	.	.	.	.	.	.
=12	=12	=12	=12	=12	=12	=12	=12	=12	=12	=12	=12	=12	=12	=12	=12
2c\	32e/LLL 32g	.	[2G\	.	[>2G/	z nią	pas-	.	2r	.	.	2r	.	.	.
.	32e/ 32g	.	.	.	.	.	.	.	.	.	.	.	.	.	.
.	32e/ 32g	.	.	.	.	.	.	.	.	.	.	.	.	.	.
.	32e/ 32g	.	.	.	.	.	.	.	.	.	.	.	.	.	.
.	32e/ 32g	.	.	.	.	.	.	.	.	.	.	.	.	.	.
.	32e/ 32g	.	.	.	.	.	.	.	.	.	.	.	.	.	.
.	32e/ 32g	.	.	.	.	.	.	.	.	.	.	.	.	.	.
.	32e/ 32g	.	.	.	.	.	.	.	.	.	.	.	.	.	.
.	32e/ 32g	.	.	.	.	.	.	.	.	.	.	.	.	.	.
.	32e/ 32g	.	.	.	.	.	.	.	.	.	.	.	.	.	.
.	32e/ 32g	.	.	.	.	.	.	.	.	.	.	.	.	.	.
.	32e/ 32g	.	.	.	.	.	.	.	.	.	.	.	.	.	.
.	32e/ 32g	.	.	.	.	.	.	.	.	.	.	.	.	.	.
.	32e/ 32g	.	.	.	.	.	.	.	.	.	.	.	.	.	.
.	32e/ 32g	.	.	.	.	.	.	.	.	.	.	.	.	.	.
.	32e/JJJ 32g	.	.	.	.	.	.	.	.	.	.	.	.	.	.
4d-X\	32f/LLL 32g	.	8G\]	.	8G/]	.	.	.	4r	.	.	4r	.	.	.
.	32f/ 32g	.	.	.	.	.	.	.	.	.	.	.	.	.	.
.	32f/ 32g	.	.	.	.	.	.	.	.	.	.	.	.	.	.
.	32f/ 32g	.	.	.	.	.	.	.	.	.	.	.	.	.	.
.	32f/ 32g	.	8G\	.	8G/	on	-so	.	.	.	.	.	.	.	.
.	32f/ 32g	.	.	.	.	.	.	.	.	.	.	.	.	.	.
.	32f/ 32g	.	.	.	.	.	.	.	.	.	.	.	.	.	.
.	32f/ 32g	.	.	.	.	.	.	.	.	.	.	.	.	.	.
4B-\	32f/ 32g	.	8.B-\	.	8.B-/	za	ei	.	8.b-/	.	.	8.b-/	Za	Ei	.
.	32f/ 32g	.	.	.	.	.	.	.	.	.	.	.	.	.	.
.	32f/ 32g	.	.	.	.	.	.	.	.	.	.	.	.	.	.
.	32f/ 32g	.	.	.	.	.	.	.	.	.	.	.	.	.	.
.	32f/ 32g	.	.	.	.	.	.	.	.	.	.	.	.	.	.
.	32f/ 32g	.	.	.	.	.	.	.	.	.	.	.	.	.	.
.	32f/ 32g	.	16A\	.	16A/	nią	la	.	16a/	.	.	16a/	nią	la	.
.	32f/JJJ 32g	.	.	.	.	.	.	.	.	.	.	.	.	.	.
!!pagebreak:original
=13	=13	=13	=13	=13	=13	=13	=13	=13	=13	=13	=13	=13	=13	=13	=13
4c\	32e/LLL 32g	.	2G\	.	2G/	wszę-	se-	.	2g/	.	.	2g/	wszę-	se-	.
.	32e/ 32g	.	.	.	.	.	.	.	.	.	.	.	.	.	.
.	32e/ 32g	.	.	.	.	.	.	.	.	.	.	.	.	.	.
.	32e/ 32g	.	.	.	.	.	.	.	.	.	.	.	.	.	.
.	32e/ 32g	.	.	.	.	.	.	.	.	.	.	.	.	.	.
.	32e/ 32g	.	.	.	.	.	.	.	.	.	.	.	.	.	.
.	32e/ 32g	.	.	.	.	.	.	.	.	.	.	.	.	.	.
.	32e/ 32g	.	.	.	.	.	.	.	.	.	.	.	.	.	.
4Bn\	32e/ 32g	.	.	.	.	.	.	.	.	.	.	.	.	.	.
.	32e/ 32g	.	.	.	.	.	.	.	.	.	.	.	.	.	.
.	32e/ 32g	.	.	.	.	.	.	.	.	.	.	.	.	.	.
.	32e/ 32g	.	.	.	.	.	.	.	.	.	.	.	.	.	.
.	32e/ 32g	.	.	.	.	.	.	.	.	.	.	.	.	.	.
.	32e/ 32g	.	.	.	.	.	.	.	.	.	.	.	.	.	.
.	32e/ 32g	.	.	.	.	.	.	.	.	.	.	.	.	.	.
.	32e/JJJ 32g	.	.	.	.	.	.	.	.	.	.	.	.	.	.
4B-X\	32e/LLL 32g 32cc	.	8G\	.	8G/	-dzie	-que	.	8g/	.	.	8g/	-dzie	-que.	.
.	32e/ 32g 32cc	.	.	.	.	.	.	.	.	.	.	.	.	.	.
.	32e/ 32g 32cc	.	.	.	.	.	.	.	.	.	.	.	.	.	.
.	32e/ 32g 32cc	.	.	.	.	.	.	.	.	.	.	.	.	.	.
.	32e/ 32g 32cc	.	8r	.	8r	.	.	.	8r	.	.	8r	.	.	.
.	32e/ 32g 32cc	.	.	.	.	.	.	.	.	.	.	.	.	.	.
.	32e/ 32g 32cc	.	.	.	.	.	.	.	.	.	.	.	.	.	.
.	32e/ 32g 32cc	.	.	.	.	.	.	.	.	.	.	.	.	.	.
!	!LO:TX:a:t=Flauti	!	!	!LO:DY:a:rj	!	!	!	!LO:DY:a:rj	!	!	!LO:DY:a:rj	!	!	!	!LO:DY:a:rj
8A\L	32e/ 32g 32cc	.	8.A\	mf	8.A/	.	.	mf	8.a/	.	mf	8.a/	Co	Che	mf
.	32e/ 32g 32cc	.	.	.	.	.	.	.	.	.	.	.	.	.	.
.	32e/ 32g 32cc	.	.	.	.	.	.	.	.	.	.	.	.	.	.
.	32e/ 32g 32cc	.	.	.	.	.	.	.	.	.	.	.	.	.	.
8G\J	32e/ 32g 32cc	.	.	.	.	.	.	.	.	.	.	.	.	.	.
.	32e/ 32g 32cc	.	.	.	.	.	.	.	.	.	.	.	.	.	.
.	32e/ 32g 32cc	.	16B-\	.	16B-/	.	.	.	16b-/	.	.	16b-/	to	sa-	.
.	32e/JJJ 32g 32cc	.	.	.	.	.	.	.	.	.	.	.	.	.	.
=14	=14	=14	=14	=14	=14	=14	=14	=14	=14	=14	=14	=14	=14	=14	=14
!	!	!LO:DY:rj	!	!	!	!	!	!	!	!	!	!	!	!	!
2FF#X/ 2F#X	32c/LLL 32e-X 32a	sf >	2c\	.	2c\	.	.	.	2cc\	.	.	2cc\	bę-	-rà..	.
.	32c/ 32e- 32a	.	.	.	.	.	.	.	.	.	.	.	.	.	.
.	32c/ 32e- 32a	.	.	.	.	.	.	.	.	.	.	.	.	.	.
.	32c/ 32e- 32a	.	.	.	.	.	.	.	.	.	.	.	.	.	.
.	32c/ 32e- 32a	.	.	.	.	.	.	.	.	.	.	.	.	.	.
.	32c/ 32e- 32a	.	.	.	.	.	.	.	.	.	.	.	.	.	.
.	32c/ 32e- 32a	.	.	.	.	.	.	.	.	.	.	.	.	.	.
.	32c/ 32e- 32a	.	.	.	.	.	.	.	.	.	.	.	.	.	.
.	32c/ 32e- 32a	.	.	.	.	.	.	.	.	.	.	.	.	.	.
.	32c/ 32e- 32a	.	.	.	.	.	.	.	.	.	.	.	.	.	.
.	32c/ 32e- 32a	.	.	.	.	.	.	.	.	.	.	.	.	.	.
.	32c/ 32e- 32a	.	.	.	.	.	.	.	.	.	.	.	.	.	.
.	32c/ 32e- 32a	.	.	.	.	.	.	.	.	.	.	.	.	.	.
.	32c/ 32e- 32a	.	.	.	.	.	.	.	.	.	.	.	.	.	.
.	32c/ 32e- 32a	.	.	.	.	.	.	.	.	.	.	.	.	.	.
.	32c/JJJ 32e- 32a	.	.	.	.	.	.	.	.	.	.	.	.	.	.
2GG/ 2G	32B-/LLL 32e- 32b-	.	8B-\	.	8B-\	.	.	.	8b-\	.	.	8b-\	-dzie	mai?	.
.	32B-/ 32e- 32b-	.	.	.	.	.	.	.	.	.	.	.	.	.	.
.	32B-/ 32e- 32b-	.	.	.	.	.	.	.	.	.	.	.	.	.	.
.	32B-/ 32e- 32b-	.	.	.	.	.	.	.	.	.	.	.	.	.	.
.	32B-/ 32e- 32b-	.	8r	.	8r	.	.	.	8r	.	.	8r	.	.	.
.	32B-/ 32e- 32b-	.	.	.	.	.	.	.	.	.	.	.	.	.	.
.	32B-/ 32e- 32b-	.	.	.	.	.	.	.	.	.	.	.	.	.	.
.	32B-/JJJ 32e- 32b-	.	.	.	.	.	.	.	.	.	.	.	.	.	.
!	!	!	!	!LO:DY:a:rj	!	!	!	!LO:DY:a:rj	!	!	!LO:DY:a:rj	!	!	!	!LO:DY:a:rj
.	32g/LLL	.	8.G\	p	8.G/	.	.	p	8.g/	.	p	8.g/	Co	Che av-	p
.	32g/	.	.	.	.	.	.	.	.	.	.	.	.	.	.
.	32g/	]	.	.	.	.	.	.	.	.	.	.	.	.	.
.	32g/	.	.	.	.	.	.	.	.	.	.	.	.	.	.
.	32e-/	.	.	.	.	.	.	.	.	.	.	.	.	.	.
.	32e-/	.	.	.	.	.	.	.	.	.	.	.	.	.	.
.	32e-/	.	16B-\	.	16B-/	.	.	.	16b-/	.	.	16b-/	to	-ver-	.
.	32e-/JJJ	.	.	.	.	.	.	.	.	.	.	.	.	.	.
=15	=15	=15	=15	=15	=15	=15	=15	=15	=15	=15	=15	=15	=15	=15	=15
!	!LO:TX:a:t=Cor.	!	!	!	!	!	!	!	!	!	!	!	!	!	!
2AA\	32A</LLL 32d	.	2A\	.	2A/	.	.	.	2a/	.	.	2a/	bę-	-ră	.
.	32A/ 32d	.	.	.	.	.	.	.	.	.	.	.	.	.	.
.	32A/ 32d	.	.	.	.	.	.	.	.	.	.	.	.	.	.
.	32A/ 32d	.	.	.	.	.	.	.	.	.	.	.	.	.	.
.	32A/ 32d	.	.	.	.	.	.	.	.	.	.	.	.	.	.
.	32A/ 32d	.	.	.	.	.	.	.	.	.	.	.	.	.	.
.	32A/ 32d	.	.	.	.	.	.	.	.	.	.	.	.	.	.
.	32A/JJJ 32d	.	.	.	.	.	.	.	.	.	.	.	.	.	.
.	32A</LLL 32c#X 32e	.	.	.	.	.	.	.	.	.	.	.	.	.	.
.	32A</ 32c# 32e	.	.	.	.	.	.	.	.	.	.	.	.	.	.
.	32A</ 32c# 32e	.	.	.	.	.	.	.	.	.	.	.	.	.	.
.	32A</ 32c# 32e	.	.	.	.	.	.	.	.	.	.	.	.	.	.
.	32A</ 32c# 32e	.	.	.	.	.	.	.	.	.	.	.	.	.	.
.	32A</ 32c# 32e	.	.	.	.	.	.	.	.	.	.	.	.	.	.
.	32A</ 32c# 32e	.	.	.	.	.	.	.	.	.	.	.	.	.	.
.	32A</JJJ 32c# 32e	.	.	.	.	.	.	.	.	.	.	.	.	.	.
2DD\ 2D	32A</LLL 32d 32f	.	8F\	.	8F/	.	.	.	8f/	.	.	8f/	-dzie	mai?	.
.	32A/ 32d 32f	.	.	.	.	.	.	.	.	.	.	.	.	.	.
.	32A/ 32d 32f	.	.	.	.	.	.	.	.	.	.	.	.	.	.
.	32A/ 32d 32f	.	.	.	.	.	.	.	.	.	.	.	.	.	.
.	32A/ 32d 32f	.	8r	.	8r	.	.	.	8r	.	.	8r	.	.	.
.	32A/ 32d 32f	.	.	.	.	.	.	.	.	.	.	.	.	.	.
.	32A/ 32d 32f	.	.	.	.	.	.	.	.	.	.	.	.	.	.
.	32A/ 32d 32f	.	.	.	.	.	.	.	.	.	.	.	.	.	.
.	32A/ 32d 32f	.	8F\	.	8F/	.	.	.	8f/	.	.	8f/	Gdzie	Pas-	.
.	32A/ 32d 32f	.	.	.	.	.	.	.	.	.	.	.	.	.	.
.	32A/ 32d 32f	.	.	.	.	.	.	.	.	.	.	.	.	.	.
.	32A/ 32d 32f	.	.	.	.	.	.	.	.	.	.	.	.	.	.
.	32A/ 32d 32f	.	8A\	.	8A/	.	.	.	8a/	.	.	8a/	my	-so a	.
.	32A/ 32d 32f	.	.	.	.	.	.	.	.	.	.	.	.	.	.
.	32A/ 32d 32f	.	.	.	.	.	.	.	.	.	.	.	.	.	.
.	32A/JJJ 32d 32f	.	.	.	.	.	.	.	.	.	.	.	.	.	.
=16	=16	=16	=16	=16	=16	=16	=16	=16	=16	=16	=16	=16	=16	=16	=16
*^	*	*	*	*	*	*	*	*	*	*	*	*	*	*	*
*	*	*Xtremolo	*	*	*	*	*	*	*	*	*	*	*	*	*	*
2Bn/	2GG\	16d/LL 16f	.	4A\	.	4A/	.	.	.	4a/	.	.	4a/	z nią	pas-	.
.	.	16d/ 16f	.	.	.	.	.	.	.	.	.	.	.	.	.	.
.	.	16d/JJ 16f	.	.	.	.	.	.	.	.	.	.	.	.	.	.
.	.	16r	.	.	.	.	.	.	.	.	.	.	.	.	.	.
*	*	*rep	*	*	*	*	*	*	*	*	*	*	*	*	*	*
.	.	16d/LL 16f	.	4G\	.	4E/	.	.	.	4g/	.	.	4g/	on	-so	.
.	.	16d/ 16f	.	.	.	.	.	.	.	.	.	.	.	.	.	.
.	.	16d/JJ 16f	.	.	.	.	.	.	.	.	.	.	.	.	.	.
.	.	16r	.	.	.	.	.	.	.	.	.	.	.	.	.	.
*	*	*Xrep	*	*	*	*	*	*	*	*	*	*	*	*	*	*
*	*	*rep	*	*	*	*	*	*	*	*	*	*	*	*	*	*
2B-X/	2GG#X\	16d/LL 16f	.	4C#X\	.	4C#X/	.	.	.	4c#X/	.	.	4c#X/	za	ei	.
.	.	16d/ 16f	.	.	.	.	.	.	.	.	.	.	.	.	.	.
.	.	16d/JJ 16f	.	.	.	.	.	.	.	.	.	.	.	.	.	.
.	.	16r	.	.	.	.	.	.	.	.	.	.	.	.	.	.
*	*	*Xrep	*	*	*	*	*	*	*	*	*	*	*	*	*	*
*	*	*rep	*	*	*	*	*	*	*	*	*	*	*	*	*	*
.	.	16d/LL 16f	.	4D\	.	4D/	.	.	.	4d/	.	.	4d/	nią	la	.
.	.	16d/ 16f	.	.	.	.	.	.	.	.	.	.	.	.	.	.
.	.	16d/JJ 16f	.	.	.	.	.	.	.	.	.	.	.	.	.	.
.	.	16r	.	.	.	.	.	.	.	.	.	.	.	.	.	.
!!linebreak:original
*	*	*Xrep	*	*	*	*	*	*	*	*	*	*	*	*	*	*
=17	=17	=17	=17	=17	=17	=17	=17	=17	=17	=17	=17	=17	=17	=17	=17	=17
4A/	4AA\	16c/LL 16f	.	2F\	.	2F/	.	.	.	2f/	se-	.	2f/	wszę-	.	.
.	.	16c/ 16f	.	.	.	.	.	.	.	.	.	.	.	.	.	.
.	.	16c/JJ 16f	.	.	.	.	.	.	.	.	.	.	.	.	.	.
.	.	16r	.	.	.	.	.	.	.	.	.	.	.	.	.	.
!LO:TX:a:t=Timp.	!	!LO:TX:a:t=Tromba	!	!	!	!	!	!	!	!	!	!	!	!	!	!
4F/	4BB-\	16d/LL 16f 16dd	.	.	.	.	.	.	.	.	.	.	.	.	.	.
.	.	16d/ 16f 16dd	.	.	.	.	.	.	.	.	.	.	.	.	.	.
.	.	16d/JJ 16f 16dd	.	.	.	.	.	.	.	.	.	.	.	.	.	.
.	.	16r	.	.	.	.	.	.	.	.	.	.	.	.	.	.
4A/	4AA\	16c/LL 16f	.	8F\	.	8F/	.	.	.	8f/	-que,	.	8f/	-dzie	.	.
.	.	16c/ 16f	.	.	.	.	.	.	.	.	.	.	.	.	.	.
.	.	16c/JJ 16f	.	8r	.	8r	.	.	.	8r	.	.	8r	.	.	.
.	.	16r	.	.	.	.	.	.	.	.	.	.	.	.	.	.
4Bn/	4AA-X\	16d/LL 16f	.	8F\	.	8F/	.	.	.	8f/	pas-	.	8f/	Gdzie	.	.
.	.	16d/ 16f	.	.	.	.	.	.	.	.	.	.	.	.	.	.
.	.	16d/JJ 16f	.	8A\	.	8A/	.	.	.	8a/	-so a	.	8a/	my	.	.
.	.	16r	.	.	.	.	.	.	.	.	.	.	.	.	.	.
=18	=18	=18	=18	=18	=18	=18	=18	=18	=18	=18	=18	=18	=18	=18	=18	=18
2Bn/	2GG\	16d/LL 16f	.	4A\	.	4A/	.	.	.	4a/	pas-	.	4a/	z nią	.	.
.	.	16d/ 16f	.	.	.	.	.	.	.	.	.	.	.	.	.	.
.	.	16d/JJ 16f	.	.	.	.	.	.	.	.	.	.	.	.	.	.
.	.	16r	.	.	.	.	.	.	.	.	.	.	.	.	.	.
.	.	16dd\LL 16ff	.	4G\	.	4G/	.	.	.	4g/	-so	.	4g/	on	.	.
.	.	16dd\ 16ff	.	.	.	.	.	.	.	.	.	.	.	.	.	.
.	.	16dd\JJ 16ff	.	.	.	.	.	.	.	.	.	.	.	.	.	.
.	.	16r	.	.	.	.	.	.	.	.	.	.	.	.	.	.
2B-X/	2GG#X\	16d/LL 16f	.	4C#X/	.	4C#X/	.	.	.	4c#X/	ei	.	4c#X/	za	.	.
.	.	16d/ 16f	.	.	.	.	.	.	.	.	.	.	.	.	.	.
.	.	16d/JJ 16f	.	.	.	.	.	.	.	.	.	.	.	.	.	.
.	.	16r	.	.	.	.	.	.	.	.	.	.	.	.	.	.
.	.	16f/LL 16dd	.	4D\	.	4D/	.	.	.	4d/	la	.	4d/	nią	.	.
.	.	16f/ 16dd	.	.	.	.	.	.	.	.	.	.	.	.	.	.
.	.	16f/JJ 16dd	.	.	.	.	.	.	.	.	.	.	.	.	.	.
.	.	16r	.	.	.	.	.	.	.	.	.	.	.	.	.	.
=19	=19	=19	=19	=19	=19	=19	=19	=19	=19	=19	=19	=19	=19	=19	=19	=19
4A/	4AA\	16d/LL 16f	.	2F\	.	2F/	.	.	.	2f/	se-	.	2f/	wszę-	.	.
.	.	16d/ 16f	.	.	.	.	.	.	.	.	.	.	.	.	.	.
.	.	16d/JJ 16f	.	.	.	.	.	.	.	.	.	.	.	.	.	.
.	.	16r	.	.	.	.	.	.	.	.	.	.	.	.	.	.
*	*	*rep	*	*	*	*	*	*	*	*	*	*	*	*	*	*
4A-X/	4C\	16d/LL 16f	.	.	.	.	.	.	.	.	.	.	.	.	.	.
.	.	16d/ 16f	.	.	.	.	.	.	.	.	.	.	.	.	.	.
.	.	16d/JJ 16f	.	.	.	.	.	.	.	.	.	.	.	.	.	.
.	.	16r	.	.	.	.	.	.	.	.	.	.	.	.	.	.
*	*	*Xrep	*	*	*	*	*	*	*	*	*	*	*	*	*	*
*	*	*rep	*	*	*	*	*	*	*	*	*	*	*	*	*	*
4G/	4BBn\	16d/LL 16f	.	8F\	.	8F/	.	.	.	8f/	-que.	.	8f/	-dzie	.	.
.	.	16d/ 16f	.	.	.	.	.	.	.	.	.	.	.	.	.	.
.	.	16d/JJ 16f	.	8r	.	8r	.	.	.	8r	.	.	8r	.	.	.
.	.	16r	.	.	.	.	.	.	.	.	.	.	.	.	.	.
*	*	*Xrep	*	*	*	*	*	*	*	*	*	*	*	*	*	*
*	*	*rep	*	*	*	*	*	*	*	*	*	*	*	*	*	*
4G#X/	4BB-X\	16d/LL 16f	.	8D\	.	8d\	.	.	.	8d/	ah	.	8dd\	A!	.	.
.	.	16d/ 16f	.	.	.	.	.	.	.	.	.	.	.	.	.	.
.	.	16d/JJ 16f	.	8r	.	8r	.	.	.	8r	.	.	8r	.	.	.
.	.	16r	.	.	.	.	.	.	.	.	.	.	.	.	.	.
*	*	*Xrep	*	*	*	*	*	*	*	*	*	*	*	*	*	*
*v	*v	*	*	*	*	*	*	*	*	*	*	*	*	*	*	*
=20	=20	=20	=20	=20	=20	=20	=20	=20	=20	=20	=20	=20	=20	=20	=20
!	!	!	!	!	!LO:TX:t=P:problem:diminuendolike accent	!	!	!	!	!	!	!LO:TX:t=P:problem:diminuendolike accent	!	!	!
4AA\ 4A	8d/ 8f	.	2F^\	.	2F^>/	.	.	.	2f^>/	va!...	.	2f^>/	kysz!	.	.
.	4d/ 4f	.	.	.	.	.	.	.	.	.	.	.	.	.	.
4BB-^\ 4B-	.	.	.	.	.	.	.	.	.	.	.	.	.	.	.
.	4d/ 4f	.	.	.	.	.	.	.	.	.	.	.	.	.	.
4AA\ 4A	.	.	4r	.	4r	.	.	.	4r	.	.	4r	.	.	.
!	!LO:TX:a:t=Ob.	!	!	!	!	!	!	!	!	!	!	!	!	!	!
.	4d/ 4f	.	.	.	.	.	.	.	.	.	.	.	.	.	.
4GG#X\ 4G#X	.	.	8D\	.	8d\	.	.	.	8d/	ah	.	8dd\	A!	.	.
.	8d/ 8f	.	8r	.	8r	.	.	.	8r	.	.	8r	.	.	.
!!pagebreak:original
=21	=21	=21	=21	=21	=21	=21	=21	=21	=21	=21	=21	=21	=21	=21	=21
(8AA\L 8A	8d/ 8f	.	4F^\	.	4F^/	.	.	.	4f^/	và!	.	4f^/	kysz!	.	.
8BB-\ 8B-	4d/ 4f	.	.	.	.	.	.	.	.	.	.	.	.	.	.
!LO:TX:t=P:problem:8G 8GG poprawione na 8A 8AA	!	!	!	!	!	!	!	!	!	!	!	!	!	!	!
8AA\ 8A	.	.	4r	.	4r	.	.	.	4r	.	.	4r	.	.	.
!LO:TX:t=P:problem:8F# 8FF# poprawione na 8G# 8GG#	!	!	!	!	!	!	!	!	!	!	!	!	!	!	!
8GG#X\J) 8G#X	4d/ 4f	.	.	.	.	.	.	.	.	.	.	.	.	.	.
(8AA\L 8A	.	.	4..D\	.	4..D/	.	.	.	4..d/	Che	.	4..d/	Co	.	.
8BB-\ 8B-	8d/L 8f	.	.	.	.	.	.	.	.	.	.	.	.	.	.
8AA\ 8A	8d/ 8f	.	.	.	.	.	.	.	.	.	.	.	.	.	.
8GG#\J) 8G#	8d/J 8f	.	.	.	.	.	.	.	.	.	.	.	.	.	.
.	.	.	16D\	.	16D/	.	.	.	16d/	sa-	.	16d/	to	.	.
=22	=22	=22	=22	=22	=22	=22	=22	=22	=22	=22	=22	=22	=22	=22	=22
*tremolo	*tremolo	*	*	*	*	*	*	*	*	*	*	*	*	*	*
!	!LO:TX:b:t=Ob2°.	!	!	!	!	!	!	!	!	!	!	!	!	!	!
32AA\LLL 32D	32F#X</LLL 32A<	.	1AA	.	1A	.	.	.	1A	-rà	.	1A	bę-	.	.
32AA\ 32D	32F#</ 32A<	.	.	.	.	.	.	.	.	.	.	.	.	.	.
32AA\ 32D	32F#</ 32Av	.	.	.	.	.	.	.	.	.	.	.	.	.	.
32AA\ 32D	32F#</ 32A<	.	.	.	.	.	.	.	.	.	.	.	.	.	.
32AA\ 32D	32F#</ 32A<	.	.	.	.	.	.	.	.	.	.	.	.	.	.
32AA\ 32D	32F#</ 32A<	.	.	.	.	.	.	.	.	.	.	.	.	.	.
32AA\ 32D	32F#</ 32A<	.	.	.	.	.	.	.	.	.	.	.	.	.	.
32AA\ 32D	32F#</ 32A<	.	.	.	.	.	.	.	.	.	.	.	.	.	.
32AA\ 32D	32F#</ 32A<	.	.	.	.	.	.	.	.	.	.	.	.	.	.
32AA\ 32D	32F#</ 32A<	.	.	.	.	.	.	.	.	.	.	.	.	.	.
32AA\ 32D	32F#</ 32A<	.	.	.	.	.	.	.	.	.	.	.	.	.	.
32AA\ 32D	32F#</ 32A<	.	.	.	.	.	.	.	.	.	.	.	.	.	.
32AA\ 32D	32F#</ 32A<	.	.	.	.	.	.	.	.	.	.	.	.	.	.
32AA\ 32D	32F#</ 32A<	.	.	.	.	.	.	.	.	.	.	.	.	.	.
32AA\ 32D	32F#</ 32A<	.	.	.	.	.	.	.	.	.	.	.	.	.	.
32AA\JJJ 32D	32F#</JJJ 32A<	.	.	.	.	.	.	.	.	.	.	.	.	.	.
32AA\LLL	32BBn</LLL 32D< 32Fn< 32A<	.	.	.	.	.	.	.	.	.	.	.	.	.	.
32AA\	32BB</ 32D< 32F< 32A<	.	.	.	.	.	.	.	.	.	.	.	.	.	.
32AA\	32BB</ 32D< 32F< 32A<	.	.	.	.	.	.	.	.	.	.	.	.	.	.
32AA\	32BB</ 32D< 32F< 32A<	.	.	.	.	.	.	.	.	.	.	.	.	.	.
32AA\	32BB</ 32D< 32F< 32A<	.	.	.	.	.	.	.	.	.	.	.	.	.	.
32AA\	32BB</ 32D< 32F< 32A<	.	.	.	.	.	.	.	.	.	.	.	.	.	.
32AA\	32BB</ 32D< 32F< 32A<	.	.	.	.	.	.	.	.	.	.	.	.	.	.
32AA\	32BB</ 32D< 32F< 32A<	.	.	.	.	.	.	.	.	.	.	.	.	.	.
32AA\	32BB</ 32D< 32F< 32A<	.	.	.	.	.	.	.	.	.	.	.	.	.	.
32AA\	32BB</ 32D< 32F< 32A<	.	.	.	.	.	.	.	.	.	.	.	.	.	.
32AA\	32BB</ 32D< 32F< 32A<	.	.	.	.	.	.	.	.	.	.	.	.	.	.
32AA\	32BB</ 32D< 32F< 32A<	.	.	.	.	.	.	.	.	.	.	.	.	.	.
32AA\	32BB</ 32D< 32F< 32A<	.	.	.	.	.	.	.	.	.	.	.	.	.	.
32AA\	32BB</ 32D< 32F< 32A<	.	.	.	.	.	.	.	.	.	.	.	.	.	.
32AA\	32BB</ 32D< 32F< 32A<	.	.	.	.	.	.	.	.	.	.	.	.	.	.
32AA\JJJ	32BB</JJJ 32D< 32F< 32A<	.	.	.	.	.	.	.	.	.	.	.	.	.	.
=23	=23	=23	=23	=23	=23	=23	=23	=23	=23	=23	=23	=23	=23	=23	=23
32AA\LLL 32Cn	32E</LLL 32A<	.	2AA/	.	2A/	.	.	.	2A/	mai?	.	2A/	-dzie	.	.
32AA\ 32C	32E</ 32A<	.	.	.	.	.	.	.	.	.	.	.	.	.	.
32AA\ 32C	32E</ 32A<	.	.	.	.	.	.	.	.	.	.	.	.	.	.
32AA\ 32C	32E</ 32A<	.	.	.	.	.	.	.	.	.	.	.	.	.	.
32AA\ 32C	32E</ 32A<	.	.	.	.	.	.	.	.	.	.	.	.	.	.
32AA\ 32C	32E</ 32A<	.	.	.	.	.	.	.	.	.	.	.	.	.	.
32AA\ 32C	32E</ 32A<	.	.	.	.	.	.	.	.	.	.	.	.	.	.
32AA\ 32C	32E</ 32A<	.	.	.	.	.	.	.	.	.	.	.	.	.	.
32AA\ 32C	32E</ 32A<	.	.	.	.	.	.	.	.	.	.	.	.	.	.
32AA\ 32C	32E</ 32A<	.	.	.	.	.	.	.	.	.	.	.	.	.	.
32AA\ 32C	32E</ 32A<	.	.	.	.	.	.	.	.	.	.	.	.	.	.
32AA\ 32C	32E</ 32A<	.	.	.	.	.	.	.	.	.	.	.	.	.	.
32AA\ 32C	32E</ 32A<	.	.	.	.	.	.	.	.	.	.	.	.	.	.
32AA\ 32C	32E</ 32A<	.	.	.	.	.	.	.	.	.	.	.	.	.	.
32AA\ 32C	32E</ 32A<	.	.	.	.	.	.	.	.	.	.	.	.	.	.
32AA\JJJ 32C	32E</JJJ 32A<	.	.	.	.	.	.	.	.	.	.	.	.	.	.
32AA\LLL 32C#X	32E</LLL 32A<	.	4AA/	.	4A/	.	.	.	4A/	che av-	.	4A/	Co	.	.
32AA\ 32C#	32E</ 32A<	.	.	.	.	.	.	.	.	.	.	.	.	.	.
32AA\ 32C#	32E</ 32A<	.	.	.	.	.	.	.	.	.	.	.	.	.	.
32AA\ 32C#	32E</ 32A<	.	.	.	.	.	.	.	.	.	.	.	.	.	.
32AA\ 32C#	32E</ 32A<	.	.	.	.	.	.	.	.	.	.	.	.	.	.
32AA\ 32C#	32E</ 32A<	.	.	.	.	.	.	.	.	.	.	.	.	.	.
32AA\ 32C#	32E</ 32A<	.	.	.	.	.	.	.	.	.	.	.	.	.	.
32AA\ 32C#	32E</ 32A<	.	.	.	.	.	.	.	.	.	.	.	.	.	.
32AA\ 32C#	32E</ 32A<	.	4AA/	.	4A/	.	.	.	4A/	-ver-	.	4A/	to	.	.
32AA\ 32C#	32E</ 32A<	.	.	.	.	.	.	.	.	.	.	.	.	.	.
32AA\ 32C#	32E</ 32A<	.	.	.	.	.	.	.	.	.	.	.	.	.	.
32AA\ 32C#	32E</ 32A<	.	.	.	.	.	.	.	.	.	.	.	.	.	.
32AA\ 32C#	32E</ 32A<	.	.	.	.	.	.	.	.	.	.	.	.	.	.
32AA\ 32C#	32E</ 32A<	.	.	.	.	.	.	.	.	.	.	.	.	.	.
32AA\ 32C#	32E</ 32A<	.	.	.	.	.	.	.	.	.	.	.	.	.	.
32AA\JJJ 32C#	32E</JJJ 32A<	.	.	.	.	.	.	.	.	.	.	.	.	.	.
=24	=24	=24	=24	=24	=24	=24	=24	=24	=24	=24	=24	=24	=24	=24	=24
!	!	!	!	!LO:HP:b	!	!	!	!LO:HP:b	!	!	!LO:HP:b	!	!	!	!LO:HP:b
32DD/LLL 32D<	1ryy	<[	[1F#X	<[	[>1A	.	.	<[	[>1d	-rà	<[	[>1f#X	bę-	.	<[
32DD/ 32D<	.	.	.	.	.	.	.	.	.	.	.	.	.	.	.
32DD/ 32D<	.	.	.	.	.	.	.	.	.	.	.	.	.	.	.
32DD/ 32D<	.	.	.	.	.	.	.	.	.	.	.	.	.	.	.
32DD/ 32D<	.	.	.	.	.	.	.	.	.	.	.	.	.	.	.
32DD/ 32D<	.	.	.	.	.	.	.	.	.	.	.	.	.	.	.
32DD/ 32D<	.	.	.	.	.	.	.	.	.	.	.	.	.	.	.
32DD/ 32D<	.	.	.	.	.	.	.	.	.	.	.	.	.	.	.
32DD/ 32D<	.	.	.	.	.	.	.	.	.	.	.	.	.	.	.
32DD/ 32D<	.	.	.	.	.	.	.	.	.	.	.	.	.	.	.
32DD/ 32D<	.	.	.	.	.	.	.	.	.	.	.	.	.	.	.
32DD/ 32D<	.	.	.	.	.	.	.	.	.	.	.	.	.	.	.
32DD/ 32D<	.	.	.	.	.	.	.	.	.	.	.	.	.	.	.
32DD/ 32D<	.	.	.	.	.	.	.	.	.	.	.	.	.	.	.
32DD/ 32D<	.	.	.	.	.	.	.	.	.	.	.	.	.	.	.
32DD/ 32D<	.	.	.	.	.	.	.	.	.	.	.	.	.	.	.
32DD/ 32D<	.	.	.	.	.	.	.	.	.	.	.	.	.	.	.
32DD/ 32D<	.	.	.	.	.	.	.	.	.	.	.	.	.	.	.
32DD/ 32D<	.	.	.	.	.	.	.	.	.	.	.	.	.	.	.
32DD/ 32D<	.	.	.	.	.	.	.	.	.	.	.	.	.	.	.
32DD/ 32D<	.	.	.	.	.	.	.	.	.	.	.	.	.	.	.
32DD/ 32D<	.	.	.	.	.	.	.	.	.	.	.	.	.	.	.
32DD/ 32D<	.	.	.	.	.	.	.	.	.	.	.	.	.	.	.
32DD/ 32D<	.	.	.	.	.	.	.	.	.	.	.	.	.	.	.
32DD/ 32D<	.	.	.	.	.	.	.	.	.	.	.	.	.	.	.
32DD/ 32D<	.	.	.	.	.	.	.	.	.	.	.	.	.	.	.
32DD/ 32D<	.	.	.	.	.	.	.	.	.	.	.	.	.	.	.
32DD/ 32D<	.	.	.	.	.	.	.	.	.	.	.	.	.	.	.
32DD/ 32D<	.	.	.	.	.	.	.	.	.	.	.	.	.	.	.
32DD/ 32D<	.	.	.	.	.	.	.	.	.	.	.	.	.	.	.
32DD/ 32D<	.	.	.	.	.	.	.	.	.	.	.	.	.	.	.
32DD/ 32D<JJJ	.	.	.	.	.	.	.	.	.	.	.	.	.	.	.
!!linebreak:original
=25	=25	=25	=25	=25	=25	=25	=25	=25	=25	=25	=25	=25	=25	=25	=25
!	!	!	!	!LO:DY:a	!LO:TX:t=P:problem:łuk dołem	!	!	!LO:DY:a	!LO:TX:t=P:problem:łuk dołem	!	!LO:DY:a	!LO:TX:t=P:problem:łuk dołem	!	!	!LO:DY:b
32DD/LLL 32D<	1ryy	>]	1F#]	>]	1A]	.	.	>]	1d]	.	>]	1f#]	.	.	>]
32DD/ 32D<	.	.	.	.	.	.	.	.	.	.	.	.	.	.	.
32DD/ 32D<	.	.	.	.	.	.	.	.	.	.	.	.	.	.	.
32DD/ 32D<	.	.	.	.	.	.	.	.	.	.	.	.	.	.	.
32DD/ 32D<	.	.	.	.	.	.	.	.	.	.	.	.	.	.	.
32DD/ 32D<	.	.	.	.	.	.	.	.	.	.	.	.	.	.	.
32DD/ 32D<	.	.	.	.	.	.	.	.	.	.	.	.	.	.	.
32DD/ 32D<	.	.	.	.	.	.	.	.	.	.	.	.	.	.	.
32DD/ 32D<	.	.	.	.	.	.	.	.	.	.	.	.	.	.	.
32DD/ 32D<	.	.	.	.	.	.	.	.	.	.	.	.	.	.	.
32DD/ 32D<	.	.	.	.	.	.	.	.	.	.	.	.	.	.	.
32DD/ 32D<	.	.	.	.	.	.	.	.	.	.	.	.	.	.	.
32DD/ 32D<	.	.	.	.	.	.	.	.	.	.	.	.	.	.	.
32DD/ 32D<	.	.	.	.	.	.	.	.	.	.	.	.	.	.	.
32DD/ 32D<	.	.	.	.	.	.	.	.	.	.	.	.	.	.	.
32DD/ 32D<	.	.	.	.	.	.	.	.	.	.	.	.	.	.	.
32DD/ 32D<	.	.	.	.	.	.	.	.	.	.	.	.	.	.	.
32DD/ 32D<	.	.	.	.	.	.	.	.	.	.	.	.	.	.	.
32DD/ 32D<	.	.	.	.	.	.	.	.	.	.	.	.	.	.	.
32DD/ 32D<	.	.	.	.	.	.	.	.	.	.	.	.	.	.	.
32DD/ 32D<	.	.	.	.	.	.	.	.	.	.	.	.	.	.	.
32DD/ 32D<	.	.	.	.	.	.	.	.	.	.	.	.	.	.	.
32DD/ 32D<	.	.	.	.	.	.	.	.	.	.	.	.	.	.	.
32DD/ 32D<	.	.	.	.	.	.	.	.	.	.	.	.	.	.	.
32DD/ 32D<	.	.	.	.	.	.	.	.	.	.	.	.	.	.	.
32DD/ 32D<	.	.	.	.	.	.	.	.	.	.	.	.	.	.	.
32DD/ 32D<	.	.	.	.	.	.	.	.	.	.	.	.	.	.	.
32DD/ 32D<	.	.	.	.	.	.	.	.	.	.	.	.	.	.	.
32DD/ 32D<	.	.	.	.	.	.	.	.	.	.	.	.	.	.	.
32DD/ 32D<	.	.	.	.	.	.	.	.	.	.	.	.	.	.	.
32DD/ 32D<	.	.	.	.	.	.	.	.	.	.	.	.	.	.	.
32DD/ 32D<JJJ	.	.	.	.	.	.	.	.	.	.	.	.	.	.	.
*Xtremolo	*	*	*	*	*	*	*	*	*	*	*	*	*	*	*
=26	=26	=26	=26	=26	=26	=26	=26	=26	=26	=26	=26	=26	=26	=26	=26
4DD/ 4D	2r	.	4D\	.	4D/	.	.	.	4d/	mai?....	.	4d/	-dzie!	.	.
4r	.	.	4r	.	4r	.	.	.	4r	.	.	4r	.	.	.
!	!LO:TX:a:t=Tutti	!	!	!	!	!	!	!	!	!	!	!	!	!	!
4..DD/ 4..D	4..A/ 4..d 4..f#X 4..a	.	2r	.	2r	.	.	.	2r	.	.	2r	.	.	.
16DD/ 16D	16A/ 16d 16f# 16a	.	.	.	.	.	.	.	.	.	.	.	.	.	.
=27	=27	=27	=27	=27	=27	=27	=27	=27	=27	=27	=27	=27	=27	=27	=27
2.DD/ 2.D	2.A/ 2.d 2.f#X 2.a	.	1r	.	1r	.	.	.	1r	.	.	1r	.	.	.
4DD/ 4D	4B-/ 4c#X 4e 4g	.	.	.	.	.	.	.	.	.	.	.	.	.	.
=28	=28	=28	=28	=28	=28	=28	=28	=28	=28	=28	=28	=28	=28	=28	=28
!	!	!	!	!	!	!	!	!	!	!	!	!LO:TX:t=fine:color=blue	!	!	!
1DD; 1AA	1A; 1d 1f#X	.	1r;	.	1r;	.	.	.	1r;	.	.	1r;	.	.	.
==	==	==	==	==	==	==	==	==	==	==	==	==	==	==	==
*-	*-	*-	*-	*-	*-	*-	*-	*-	*-	*-	*-	*-	*-	*-	*-
!!!system-decoration: [(s1,s2,s3,s4)][(s5,s6)]
!!!RDF**kern: > = above
!!!RDF**kern: < = below
!!!RDF**dynam: p = "p."
!!!RDF**dynam: pp = "pp."
!!!RDF**dynam: f = "f."
!!!ENC: Katarzyna Serwa
!!!END: 2021-10-12
!!!ENC:Anastazja Marusiak
!!!END:2021-09-21
